ACP3/Modules/ACP3/System/Resources/Assets/svgs/solid/bowl-rice.svg

<svg xmlns="http://www.w3.org/2000/svg" viewBox="0 0 512 512"><!--! Font Awesome Free 6.2.0 by @fontawesome - https://fontawesome.com License - https://fontawesome.com/license/free (Icons: CC BY 4.0, Fonts: SIL OFL 1.1, Code: MIT License) Copyright 2022 Fonticons, Inc. --><path d="M176 56c0-13.3 10.7-24 24-24h16c13.3 0 24 10.7 24 24s-10.7 24-24 24H200c-13.3 0-24-10.7-24-24zm24 48h16c13.3 0 24 10.7 24 24s-10.7 24-24 24H200c-13.3 0-24-10.7-24-24s10.7-24 24-24zM56 176H72c13.3 0 24 10.7 24 24s-10.7 24-24 24H56c-13.3 0-24-10.7-24-24s10.7-24 24-24zM0 283.4C0 268.3 12.3 256 27.4 256H484.6c15.1 0 27.4 12.3 27.4 27.4c0 70.5-44.4 130.7-106.7 154.1L403.5 452c-2 16-15.6 28-31.8 28H140.2c-16.1 0-29.8-12-31.8-28l-1.8-14.4C44.4 414.1 0 353.9 0 283.4zM224 200c0-13.3 10.7-24 24-24h16c13.3 0 24 10.7 24 24s-10.7 24-24 24H248c-13.3 0-24-10.7-24-24zm-96 0c0-13.3 10.7-24 24-24h16c13.3 0 24 10.7 24 24s-10.7 24-24 24H152c-13.3 0-24-10.7-24-24zm-24-96h16c13.3 0 24 10.7 24 24s-10.7 24-24 24H104c-13.3 0-24-10.7-24-24s10.7-24 24-24zm216 96c0-13.3 10.7-24 24-24h16c13.3 0 24 10.7 24 24s-10.7 24-24 24H344c-13.3 0-24-10.7-24-24zm-24-96h16c13.3 0 24 10.7 24 24s-10.7 24-24 24H296c-13.3 0-24-10.7-24-24s10.7-24 24-24zm120 96c0-13.3 10.7-24 24-24h16c13.3 0 24 10.7 24 24s-10.7 24-24 24H440c-13.3 0-24-10.7-24-24zm-24-96h16c13.3 0 24 10.7 24 24s-10.7 24-24 24H392c-13.3 0-24-10.7-24-24s10.7-24 24-24zM296 32h16c13.3 0 24 10.7 24 24s-10.7 24-24 24H296c-13.3 0-24-10.7-24-24s10.7-24 24-24z"/></svg>

<svg xmlns="http://www.w3.org/2000/svg" viewBox="0 0 512 512"><!--! Font Awesome Free 6.1.2 by @fontawesome - https://fontawesome.com License - https://fontawesome.com/license/free (Icons: CC BY 4.0, Fonts: SIL OFL 1.1, Code: MIT License) Copyright 2022 Fonticons, Inc. --><path d="M176 56C176 42.75 186.7 32 200 32H216C229.3 32 240 42.75 240 56C240 69.25 229.3 80 216 80H200C186.7 80 176 69.25 176 56zM216 104C229.3 104 240 114.7 240 128C240 141.3 229.3 152 216 152H200C186.7 152 176 141.3 176 128C176 114.7 186.7 104 200 104H216zM72 176C85.26 176 96 186.7 96 200C96 213.3 85.26 224 72 224H56C42.75 224 32 213.3 32 200C32 186.7 42.75 176 56 176H72zM.001 283.4C.001 268.3 12.28 256 27.43 256H484.6C499.7 256 512 268.3 512 283.4C512 353.9 467.6 414.1 405.3 437.5L403.5 451.1C401.5 467.1 387.9 480 371.8 480H140.2C124.1 480 110.5 467.1 108.5 451.1L106.7 437.5C44.36 414.1 0 353.9 0 283.4H.001zM224 200C224 186.7 234.7 176 248 176H264C277.3 176 288 186.7 288 200C288 213.3 277.3 224 264 224H248C234.7 224 224 213.3 224 200zM128 200C128 186.7 138.7 176 152 176H168C181.3 176 192 186.7 192 200C192 213.3 181.3 224 168 224H152C138.7 224 128 213.3 128 200zM120 104C133.3 104 144 114.7 144 128C144 141.3 133.3 152 120 152H104C90.75 152 80 141.3 80 128C80 114.7 90.75 104 104 104H120zM320 200C320 186.7 330.7 176 344 176H360C373.3 176 384 186.7 384 200C384 213.3 373.3 224 360 224H344C330.7 224 320 213.3 320 200zM312 104C325.3 104 336 114.7 336 128C336 141.3 325.3 152 312 152H296C282.7 152 272 141.3 272 128C272 114.7 282.7 104 296 104H312zM416 200C416 186.7 426.7 176 440 176H456C469.3 176 480 186.7 480 200C480 213.3 469.3 224 456 224H440C426.7 224 416 213.3 416 200zM408 104C421.3 104 432 114.7 432 128C432 141.3 421.3 152 408 152H392C378.7 152 368 141.3 368 128C368 114.7 378.7 104 392 104H408zM312 32C325.3 32 336 42.75 336 56C336 69.25 325.3 80 312 80H296C282.7 80 272 69.25 272 56C272 42.75 282.7 32 296 32H312z"/></svg>
